!!!SOCIAL_FUNCTION:	songs of personal narratives concerning war
!!!PDT:	1918

Specific Region: Dakotas, Minnesota, Montana, Nebraska
!!!REG: Dakotas and Montana
!!!LING_GROUP: Siouan
!!!LANG: Tone
!!!OTL@ENG: Song Concerning Sitting Crow
!!!ONM: No. 158
**kern
*Imale
*clefF4
*k[f#c#]
*M2/4
*MM76
2f#
=2
8.e
16f#
4e
=3||
*M3/4
4d
[2d
=4
4d]
4B
4d
=5
4e
4d
16e
8.d
=6||
*M2/4
4B
[4B
=7
2B]
=8
16d
[8.B
4B_
=9
2B]
=10
4..F#
16e
=11
8.d
16d
8.d
16d
=12
8.d
16d
8.B
16e
=13
4d
(16e
8d)
16B
=14
4B
[4A
=15
4.A]
16B
16F#
=16
4F#
8.E
16F#
=17
4E
4D
=18
[2D
=19
4D]
8BB
16D
16D
=20
4E
4D
=21
16E
8.D
8.BB
16BB
=22
2BB
==
*-
!!!CNT: Native American -- Sioux
!!!MRD: 1911/07//-1914///
!!!OCL: Frances Densmore
!!!YOR1: Teton Sioux Music, Bulletin 61,
!!!YOR2: Bureau of American Ethnology, Smithsonian Institution
!!!PPR: Government Printing Office
!!!PPP: Washington, D.C.
!!!PDT: 1918///
!!!ENC: Craig Stuart Sapp
!!!END: 2002/03/25/
!!!EEV: 2002/03/31/
!!!AGN: War Song/Song of Personal Narrative Concerning War
!!!MPN@@SIO: Wi'yaka-wangzhi'la
!!!MPN@ENG: One Feather
!!!TXO: Teton Sioux
!!!MLC: Standing Rock Reservation, South Dakota, United States of America
!!!ARL: 45.9/-100.7#
!!!catalog: Catalogue No. 625
!!!PPG: 384
!!!EFL: 163/245
!!!VTS: 3778601191
